assets/bank-tab/Asset/Scan.svg

<svg width="95" height="95" viewBox="0 0 95 95" fill="none" xmlns="http://www.w3.org/2000/svg">
<g filter="url(#filter0_d_214_1104)">
<circle cx="47.2" cy="47.1999" r="26.8" fill="url(#paint0_linear_214_1104)" stroke="url(#paint1_linear_214_1104)" stroke-width="2.4"/>
<g opacity="0.5">
<path d="M35.3043 39.0609C35.3043 36.9862 36.9861 35.3044 39.0608 35.3044H41.5651C42.2567 35.3044 42.8173 34.7438 42.8173 34.0522C42.8173 33.3607 42.2567 32.8 41.5651 32.8H39.0608C35.603 32.8 32.7999 35.6031 32.7999 39.0609V41.5653C32.7999 42.2568 33.3605 42.8174 34.0521 42.8174C34.7437 42.8174 35.3043 42.2568 35.3043 41.5653V39.0609Z" fill="#E5F2FF"/>
<path d="M59.0956 39.0609C59.0956 36.9862 57.4137 35.3044 55.3391 35.3044H52.8347C52.1432 35.3044 51.5825 34.7438 51.5825 34.0522C51.5825 33.3607 52.1432 32.8 52.8347 32.8H55.3391C58.7968 32.8 61.5999 35.6031 61.5999 39.0609V41.5653C61.5999 42.2568 61.0393 42.8174 60.3478 42.8174C59.6562 42.8174 59.0956 42.2568 59.0956 41.5653V39.0609Z" fill="#E5F2FF"/>
<path d="M39.0608 59.0957C36.9861 59.0957 35.3043 57.4138 35.3043 55.3392V52.8348C35.3043 52.1433 34.7437 51.5827 34.0521 51.5827C33.3605 51.5827 32.7999 52.1433 32.7999 52.8348V55.3392C32.7999 58.797 35.603 61.6 39.0608 61.6H41.5651C42.2567 61.6 42.8173 61.0394 42.8173 60.3479C42.8173 59.6563 42.2567 59.0957 41.5651 59.0957H39.0608Z" fill="#E5F2FF"/>
<path d="M59.0956 55.3392C59.0956 57.4138 57.4137 59.0957 55.3391 59.0957H52.8347C52.1432 59.0957 51.5825 59.6563 51.5825 60.3479C51.5825 61.0394 52.1432 61.6 52.8347 61.6H55.3391C58.7968 61.6 61.5999 58.797 61.5999 55.3392V52.8348C61.5999 52.1433 61.0393 51.5827 60.3478 51.5827C59.6562 51.5827 59.0956 52.1433 59.0956 52.8348V55.3392Z" fill="#E5F2FF"/>
</g>
<path d="M44.1672 47.6333C45.6028 47.6335 46.7666 48.7973 46.7668 50.2329V53.2671C46.7666 54.7027 45.6028 55.8665 44.1672 55.8667H41.1331C39.6975 55.8665 38.5337 54.7027 38.5334 53.2671V50.2329C38.5337 48.7973 39.6974 47.6335 41.1331 47.6333H44.1672ZM53.9163 52.3999C54.5144 52.3999 55 52.8848 55.0002 53.4829V54.7837C55.0001 55.3819 54.5145 55.8667 53.9163 55.8667H52.6165C52.0184 55.8666 51.5336 55.3818 51.5334 54.7837V53.4829C51.5337 52.8849 52.0184 52.4 52.6165 52.3999H53.9163ZM42.0002 50.2329C41.5216 50.2329 41.1331 50.6215 41.1331 51.1001V52.3999C41.1331 52.8785 41.5216 53.2671 42.0002 53.2671H43.3C43.7787 53.2671 44.1663 52.8785 44.1663 52.3999V51.1001C44.1662 50.6215 43.7787 50.2329 43.3 50.2329H42.0002ZM50.4504 48.0669C51.0486 48.067 51.5334 48.5517 51.5334 49.1499V50.4497C51.5334 51.048 51.0487 51.5336 50.4504 51.5337H49.1506C48.5523 51.5337 48.0667 51.048 48.0667 50.4497V49.1499C48.0667 48.5517 48.5524 48.0669 49.1506 48.0669H50.4504ZM44.1672 38.5337C45.6028 38.5339 46.7666 39.6977 46.7668 41.1333V44.1675C46.7666 45.6031 45.6028 46.7668 44.1672 46.7671H41.1331C39.6974 46.7669 38.5337 45.6031 38.5334 44.1675V41.1333C38.5337 39.6977 39.6974 38.5339 41.1331 38.5337H44.1672ZM53.2668 38.5337C54.7024 38.5339 55.8662 39.6977 55.8665 41.1333V44.1675C55.8661 45.603 54.7024 46.7668 53.2668 46.7671H50.2327C48.7973 46.7667 47.6334 45.6029 47.6331 44.1675V41.1333C47.6333 39.6978 48.7972 38.5341 50.2327 38.5337H53.2668ZM42.0002 41.1333C41.5217 41.1333 41.1333 41.5211 41.1331 41.9995V43.3003C41.1332 43.7788 41.5217 44.1665 42.0002 44.1665H43.3C43.7786 44.1665 44.1661 43.7788 44.1663 43.3003V41.9995C44.166 41.5211 43.7785 41.1333 43.3 41.1333H42.0002ZM51.0999 41.1333C50.6215 41.1335 50.2329 41.5212 50.2327 41.9995V43.3003C50.2329 43.7786 50.6215 44.1663 51.0999 44.1665H52.3997C52.8782 44.1665 53.2666 43.7787 53.2668 43.3003V41.9995C53.2666 41.5211 52.8782 41.1333 52.3997 41.1333H51.0999Z" fill="white"/>
</g>
<defs>
<filter id="filter0_d_214_1104" x="-0.000171661" y="-4.95911e-05" width="94.4001" height="94.4" filterUnits="userSpaceOnUse" color-interpolation-filters="sRGB">
<feFlood flood-opacity="0" result="BackgroundImageFix"/>
<feColorMatrix in="SourceAlpha" type="matrix" values="0 0 0 0 0 0 0 0 0 0 0 0 0 0 0 0 0 0 127 0" result="hardAlpha"/>
<feOffset/>
<feGaussianBlur stdDeviation="9.6"/>
<feComposite in2="hardAlpha" operator="out"/>
<feColorMatrix type="matrix" values="0 0 0 0 0 0 0 0 0 0 0 0 0 0 0 0 0 0 0.24 0"/>
<feBlend mode="normal" in2="BackgroundImageFix" result="effect1_dropShadow_214_1104"/>
<feBlend mode="normal" in="SourceGraphic" in2="effect1_dropShadow_214_1104" result="shape"/>
</filter>
<linearGradient id="paint0_linear_214_1104" x1="41.6" y1="16.4499" x2="47.2" y2="79.2499" gradientUnits="userSpaceOnUse">
<stop stop-color="#6DDCFF"/>
<stop offset="1" stop-color="#0055D5"/>
</linearGradient>
<linearGradient id="paint1_linear_214_1104" x1="55.2" y1="18.8499" x2="47.2" y2="72.7998" gradientUnits="userSpaceOnUse">
<stop stop-color="white"/>
<stop offset="1" stop-color="#116ADC"/>
</linearGradient>
</defs>
</svg>

<svg xmlns="http://www.w3.org/2000/svg" width="95" height="95" fill="none" viewBox="0 0 95 95"><g filter="url(#a)"><circle cx="47.2" cy="47.2" r="26.8" fill="url(#b)" stroke="url(#c)" stroke-width="2.4"/><path fill="#e5f2ff" d="M35.304 39.06a3.756 3.756 0 0 1 3.757-3.756h2.504a1.252 1.252 0 1 0 0-2.504h-2.504a6.26 6.26 0 0 0-6.261 6.26v2.505a1.252 1.252 0 0 0 2.504 0zm23.792 0a3.757 3.757 0 0 0-3.757-3.756h-2.504a1.252 1.252 0 0 1 0-2.504h2.504a6.26 6.26 0 0 1 6.26 6.26v2.505a1.252 1.252 0 0 1-2.503 0zM39.06 59.096a3.757 3.757 0 0 1-3.756-3.757v-2.504a1.252 1.252 0 0 0-2.504 0v2.504a6.26 6.26 0 0 0 6.26 6.261h2.505a1.252 1.252 0 1 0 0-2.504zm20.036-3.756a3.757 3.757 0 0 1-3.757 3.756h-2.504a1.252 1.252 0 0 0 0 2.504h2.504a6.26 6.26 0 0 0 6.26-6.26v-2.505a1.252 1.252 0 0 0-2.503 0z" opacity=".5"/><path fill="#fff" d="M44.167 47.633a2.6 2.6 0 0 1 2.6 2.6v3.034a2.6 2.6 0 0 1-2.6 2.6h-3.034a2.6 2.6 0 0 1-2.6-2.6v-3.034a2.6 2.6 0 0 1 2.6-2.6zm9.75 4.767c.597 0 1.083.485 1.083 1.083v1.3c0 .599-.486 1.084-1.084 1.084h-1.3a1.083 1.083 0 0 1-1.083-1.083v-1.301c0-.598.485-1.083 1.084-1.083zM42 50.233a.87.87 0 0 0-.867.867v1.3c0 .479.389.867.867.867h1.3a.867.867 0 0 0 .866-.867v-1.3a.867.867 0 0 0-.866-.867zm8.45-2.166c.599 0 1.083.485 1.083 1.083v1.3c0 .598-.484 1.084-1.083 1.084h-1.3a1.084 1.084 0 0 1-1.083-1.084v-1.3c0-.598.485-1.083 1.084-1.083zm-6.283-9.533a2.6 2.6 0 0 1 2.6 2.6v3.033a2.6 2.6 0 0 1-2.6 2.6h-3.034a2.6 2.6 0 0 1-2.6-2.6v-3.034a2.6 2.6 0 0 1 2.6-2.6zm9.1 0a2.6 2.6 0 0 1 2.6 2.6v3.033a2.6 2.6 0 0 1-2.6 2.6h-3.034a2.6 2.6 0 0 1-2.6-2.6v-3.034a2.6 2.6 0 0 1 2.6-2.6zM42 41.134a.867.867 0 0 0-.867.865V43.3c0 .479.389.867.867.867h1.3a.866.866 0 0 0 .866-.867V42a.866.866 0 0 0-.866-.867zm9.1 0a.867.867 0 0 0-.867.865V43.3c0 .479.389.866.867.867h1.3a.867.867 0 0 0 .867-.867V42a.867.867 0 0 0-.867-.867z"/></g><defs><linearGradient id="b" x1="41.6" x2="47.2" y1="16.45" y2="79.25" gradientUnits="userSpaceOnUse"><stop stop-color="#6ddcff"/><stop offset="1" stop-color="#0055d5"/></linearGradient><linearGradient id="c" x1="55.2" x2="47.2" y1="18.85" y2="72.8" gradientUnits="userSpaceOnUse"><stop stop-color="#fff"/><stop offset="1" stop-color="#116adc"/></linearGradient><filter id="a" width="94.4" height="94.4" x="0" y="0" color-interpolation-filters="sRGB" filterUnits="userSpaceOnUse"><feFlood flood-opacity="0" result="BackgroundImageFix"/><feColorMatrix in="SourceAlpha" result="hardAlpha" values="0 0 0 0 0 0 0 0 0 0 0 0 0 0 0 0 0 0 127 0"/><feOffset/><feGaussianBlur stdDeviation="9.6"/><feComposite in2="hardAlpha" operator="out"/><feColorMatrix values="0 0 0 0 0 0 0 0 0 0 0 0 0 0 0 0 0 0 0.24 0"/><feBlend in2="BackgroundImageFix" result="effect1_dropShadow_214_1104"/><feBlend in="SourceGraphic" in2="effect1_dropShadow_214_1104" result="shape"/></filter></defs></svg>
